X:1
T:Title
%%score [ ( 1 2 ) ( 3 4 ) ]
L:1/8
Q:1/4=240
M:4/4
K:G
V:1 treble nm="Midi_74"
V:2 treble 
V:3 bass nm="Midi_74"
V:4 bass 
V:1
"^Herbert Brewer\n(1865-1928)" G8 | B4 B4 | d8 || c8 | B4 A4 | G4 G4 | F8 || G8 | B4 B4 | e8 || %10
 A8 | d4 c4 | A4 A4 | G8 |] %14
V:2
 D8 | D4 G4 | F8 || E6 F2 | G4 E4 | D4 ^C4 | D8 || D8 | G4 =F4 | E8 || F8 | G4 G4 | G4 F4 | G8 |] %14
V:3
 B,8 | B,4 G,4 | A,8 || C8 | D4 C4 | B,4 G,4 | A,8 || B,8 | B,4 D4 | G,8 || D8 | D4 E4 | D4 D2 C2 | %13
 B,8 |] %14
V:4
 G,8 | G,4 E,4 | D,8 || A,,8 | B,,4 C,4 | D,4 E,4 | D,8 || G,8 | E,4 D,4 | C,8 || D,8 | B,,4 C,4 | %12
 D,4 D,4 | G,8 |] %14

